icons/svg/sd.svg

﻿<?xml version="1.0" encoding="utf-8"?>
<!DOCTYPE svg PUBLIC "-//W3C//DTD SVG 1.1//EN" "http://www.w3.org/Graphics/SVG/1.1/DTD/svg11.dtd">
<svg xmlns="http://www.w3.org/2000/svg" xmlns:xlink="http://www.w3.org/1999/xlink" version="1.1" baseProfile="full" width="24" height="24" viewBox="0 0 24.00 24.00" enable-background="new 0 0 24.00 24.00" xml:space="preserve">
	<path fill="#000000" fill-opacity="1" stroke-width="0.2" stroke-linejoin="round" d="M 17.9994,7.99807L 15.9994,7.99807L 15.9994,3.99807L 17.9994,3.99807M 14.9994,7.99807L 12.9994,7.99807L 12.9994,3.99807L 14.9994,3.99807M 11.9994,7.99807L 9.99939,7.99807L 9.99939,3.99807L 11.9994,3.99807M 17.9994,1.99807L 9.99939,1.99807L 4.02139,7.99807L 3.99939,19.9981C 3.99939,21.0981 4.89938,21.9981 5.99939,21.9981L 17.9994,21.9981C 19.0994,21.9981 19.9994,21.0981 19.9994,19.9981L 19.9994,3.99807C 19.9994,2.89807 19.0994,1.99807 17.9994,1.99807 Z "/>
</svg>

<svg xmlns="http://www.w3.org/2000/svg" version="1.1" baseProfile="full" width="24" height="24" viewBox="0 0 24.00 24.00" xml:space="preserve"><path fill="#000" fill-opacity="1" stroke-width=".2" stroke-linejoin="round" d="M18 7.998h-2v-4h2m-3 4h-2v-4h2m-3 4h-2v-4h2m6-2h-8l-5.98 6-.02 12c0 1.1.9 2 2 2h12c1.1 0 2-.9 2-2v-16c0-1.1-.9-2-2-2z"/></svg>
